X: 638
T:Steampacket
D:Johnny Doran
M:C
N:Posted to the woodenflute mailing list March 2003
Z:Pat Higgins
K:G
AG~G2 AGFD|AG~G2 Addc|AG~G2 AGFD|FEFG ABcA:|
dg~g2 aggf|dgge fdcA|dg~g2 aggf|d^cde fd=cA|
dg~g2 ag (3efg| ~a3g ~f3g|afge fde^c|d2eg fdcA||

